wiserone/images/titles/title-wiserone.svg

<svg height="124" viewBox="0 0 740 124" width="740" xmlns="http://www.w3.org/2000/svg"><path d="m37.8322754 94.6034851 23.4552002-91.52340698h12.3304443l-1.355133 23.61984258-25.1484833 94.3957823h-12.8142395zm-17.6243286-91.52340698 19.0896454 90.79518128 1.6616211 27.2204436h-13.6564484l-27.3027649-118.01562488zm80.1212922 90.53555298 18.773025-90.53555298h20.229477l-27.250839 118.01562488h-13.6273192zm-21.9126283-90.53555298 23.2525633 91.76150518 3.443558 26.2541197h-12.8142396l-24.793869-94.4553069-1.2867432-23.56031798zm93.6935993 30.31445308v87.7011718h-19.60257v-87.7011718zm-20.915909-23.0245971c0-2.96778363.986165-5.43805188 2.958496-7.41080477s4.705393-2.95912933 8.199188-2.95912933c3.459178 0 6.192029.98637644 8.198555 2.95912933s3.009789 4.44302114 3.009789 7.41080477c0 2.8993937-1.003263 5.3270238-3.009789 7.2828903s-4.739377 2.9337997-8.198555 2.9337997c-3.493795 0-6.226857-.9779332-8.199188-2.9337997s-2.958496-4.3834966-2.958496-7.2828903zm90.249022 86.9564819c0-1.9233602-.48274-3.6780675-1.448219-5.264122-.96548-1.5860545-2.819184-3.0399729-5.561112-4.3617554-2.741928-1.3217824-6.765744-2.5200831-12.071449-3.594902-4.644603-.9870097-8.895963-2.20283-12.754082-3.6474609-3.858119-1.444631-7.166585-3.1965943-9.9254-5.2558899-2.758814-2.0592957-4.89241-4.4894588-6.400787-7.2904892-1.508377-2.8010305-2.262566-6.0514501-2.262566-9.7512589 0-3.5571187.779941-6.9204661 2.339821-10.0900421 1.559881-3.169576 3.807882-5.9777832 6.744004-8.4246216 2.936121-2.4468384 6.492818-4.3706207 10.670089-5.771347 4.177272-1.4007263 8.873589-2.1010895 14.088951-2.1010895 7.342204 0 13.637874 1.2278519 18.887009 3.6835556s9.282028 5.7804235 12.098679 9.9741592c2.81665 4.1937358 4.224975 8.9122162 4.224975 14.1554413h-19.521515c0-2.3522745-.586802-4.5426508-1.760406-6.5711288s-2.921346-3.6751124-5.243225-4.9399033c-2.321879-1.2647908-5.227183-1.8971863-8.715912-1.8971863-3.32662 0-6.084801.530655-8.274544 1.5919648s-3.820757 2.4356511-4.893043 4.123024c-1.072286 1.6873728-1.608429 3.5222905-1.608429 5.5047531 0 1.4623616.283691 2.7689463.851074 3.919754s1.530963 2.2034632 2.890739 3.1579666c1.359777.9545034 3.214536 1.8363953 5.564278 2.6456757s5.300217 1.5938644 8.851425 2.3537521c6.710653 1.4226786 12.478834 3.2191798 17.304543 5.3895035s8.547048 4.9730428 11.164016 8.4081573c2.616969 3.4351146 3.925454 7.781039 3.925454 13.0377732 0 3.8568525-.831866 7.3941295-2.495598 10.6118315s-4.059489 6.00459-7.187271 8.360664c-3.127783 2.356075-6.862842 4.184027-11.205178 5.483857s-9.219126 1.949745-14.630371 1.949745c-7.965311 0-14.702349-1.422679-20.211113-4.268036-5.508763-2.845357-9.675692-6.49113-12.500786-10.937317-2.825093-4.446187-4.23764-9.0713704-4.23764-13.8755492h18.887009c.176463 3.5908915 1.171704 6.4645332 2.985725 8.6209262 1.814021 2.156392 4.089673 3.699808 6.826958 4.630249 2.737284.93044 5.576309 1.39566 8.517074 1.39566 3.511526 0 6.45018-.470919 8.815964-1.412758 2.365784-.941838 4.16904-2.234281 5.409767-3.877327 1.240728-1.643046 1.861092-3.5317889 1.861092-5.666229zm73.657072 25.390381c-6.483531 0-12.321579-1.069964-17.514145-3.209892-5.192566-2.139929-9.618067-5.130931-13.276504-8.973008-3.658437-3.842076-6.45799-8.346944-8.398659-13.5146023-1.940669-5.1676584-2.911003-10.7521998-2.911003-16.7536239v-3.2852478c0-6.8744507.993975-13.0882213 2.981926-18.6413117 1.98795-5.5530904 4.772306-10.3146311 8.353065-14.2846222 3.58076-3.969991 7.79687-7.0093307 12.648331-9.1180191 4.851461-2.1086883 10.12297-3.1630325 15.814529-3.1630325 6.247966 0 11.719579 1.0509669 16.414841 3.1529007s8.59623 5.0597966 11.702904 8.8735886c3.106674 3.8137919 5.436785 8.3429336 6.990333 13.5874252 1.553549 5.2444916 2.330323 11.0261815 2.330323 17.3450699v8.335968h-67.755387v-14.0262604h48.473236v-1.4919128c-.11736-3.5334778-.805481-6.8396225-2.064361-9.9184342-1.258881-3.0788116-3.195539-5.5689214-5.809975-7.4703293-2.614436-1.9014078-6.071714-2.8521118-10.371834-2.8521118-3.245564 0-6.126594.6912868-8.643089 2.0738602s-4.617795 3.3745346-6.303902 5.9758835c-1.686106 2.6013489-2.967572 5.7198435-3.844398 9.355484s-1.315239 7.7242584-1.315239 12.2658539v3.2852478c0 3.8230794.531288 7.3747101 1.593864 10.6548919 1.062577 3.2801819 2.615914 6.1344045 4.660012 8.5626679 2.044097 2.4282634 4.52492 4.3267164 7.442466 5.6953584 2.917547 1.368642 6.241 2.052963 9.97036 2.052963 4.719747 0 8.906939-.941627 12.561577-2.824882s6.830335-4.56587 9.527092-8.0478443l10.299011 9.9836583c-1.851593 2.744883-4.300964 5.374516-7.348114 7.8889-3.047149 2.514384-6.746325 4.557216-11.097526 6.128495-4.351202 1.571278-9.38778 2.356918-15.109734 2.356918zm68.654394-72.6250001v71.0039061h-19.521515v-87.7011718h18.60965zm26.860764-17.2431183-.2305 18.1397858c-1.182891-.2102356-2.462247-.3708675-3.838066-.4818955s-2.736651-.166542-4.082496-.166542c-3.358704 0-6.29757.4757741-8.816597 1.4273223-2.519028.9515483-4.632571 2.305837-6.34063 4.0628663-1.708059 1.7570292-3.019498 3.8785934-3.934318 6.3646926-.914821 2.4860993-1.464684 5.2636999-1.64959 8.3328019l-4.483337.3470153c0-5.5134073.546697-10.6285069 1.640091-15.3452987 1.093393-4.7167918 2.737917-8.8619792 4.93357-12.4355622 2.195654-3.5735829 4.944758-6.3537165 8.247315-8.3404007 3.302556-1.9866841 7.162575-2.9800262 11.580055-2.9800262 1.179515 0 2.45697.1065954 3.832367.3197861s2.422775.465009 3.142136.755455zm147.040772 26.0172882v6.4742432c0 8.9210815-1.162417 16.9188995-3.487251 23.9934539-2.324834 7.0745545-5.647021 13.0951871-9.96656 18.0618971-4.31954 4.966711-9.46799 8.761928-15.445351 11.385651s-12.629122 3.935585-19.955284 3.935585c-7.208801 0-13.806948-1.311862-19.794441-3.935585s-11.171616-6.41894-15.552368-11.385651c-4.380753-4.96671-7.767741-10.9873426-10.160965-18.0618971-2.393225-7.0745544-3.589837-15.0723724-3.589837-23.9934539v-6.4742432c0-8.9219259 1.187958-16.9163666 3.563874-23.9833221 2.375915-7.0669556 5.735885-13.0924429 10.07991-18.0764618 4.344025-4.984019 9.509783-8.78789016 15.497276-11.4116135 5.987493-2.62372335 12.58564-3.93558502 19.794442-3.93558502 7.326161 0 13.982989 1.31186167 19.970481 3.93558502 5.987493 2.62372334 11.149453 6.4275945 15.485878 11.4116135 4.336426 4.9840189 7.680565 11.0095062 10.032418 18.0764618 2.351852 7.0669555 3.527778 15.0613962 3.527778 23.9833221zm-20.394119 6.4742432v-6.6363526c0-6.5882263-.636617-12.4104436-1.909851-17.4666519s-3.138969-9.3025029-5.597206-12.738884c-2.458237-3.436381-5.464648-6.0356191-9.019234-7.7977142s-7.586634-2.6431427-12.096145-2.6431427c-4.466451 0-8.455018.8810476-11.965699 2.6431427s-6.493662 4.3613332-8.948944 7.7977142c-2.455281 3.4363811-4.335159 7.6826757-5.639633 12.738884s-1.956711 10.8784256-1.956711 17.4666519v6.6363526c0 6.6025797.652237 12.4404169 1.956711 17.5135116s3.206515 9.3461965 5.706123 12.8193054c2.499609 3.473109 5.509608 6.095777 9.029999 7.868004s7.513812 2.65834 11.980263 2.65834c4.543284 0 8.578921-.886113 12.106911-2.65834 3.527989-1.772227 6.507382-4.394895 8.938179-7.868004 2.430796-3.4731089 4.274368-7.7462107 5.530716-12.8193054 1.256347-5.0730947 1.884521-10.9109319 1.884521-17.5135116zm56.76368-13.2220459v68.9775389h-19.521515v-87.7011718h18.384217zm-3.447357 21.92276-6.300735-.0937195c.034617-6.2564087.896667-11.967598 2.586151-17.1335678 1.689483-5.1659699 4.07152-9.6203893 7.14611-13.3632584 3.07459-3.742869 6.746959-6.6247431 11.017105-8.6456222 4.270147-2.0208791 9.013324-3.0313187 14.229531-3.0313187 4.224131 0 8.050377.5859578 11.478737 1.7578735s6.371869 3.0475719 8.830528 5.6269684c2.458659 2.5793966 4.341492 5.9414775 5.648498 10.0862427 1.307007 4.1447652 1.960511 9.2170156 1.960511 15.2167511v56.6344298h-19.631699v-56.7661437c0-4.1962687-.60601-7.517189-1.818031-9.9627609s-2.976016-4.1990128-5.291985-5.2603226-5.156682-1.5919647-8.52214-1.5919647c-3.391632 0-6.410497.6942419-9.056595 2.0827255-2.646098 1.3884837-4.87468 3.306778-6.685745 5.7548828-1.811066 2.4481049-3.195539 5.2681326-4.15342 8.4600831-.957881 3.1919504-1.436821 6.6015243-1.436821 10.2287216zm113.9012 48.6758729c-6.483531 0-12.321579-1.069964-17.514145-3.209892-5.192566-2.139929-9.618068-5.130931-13.276505-8.973008-3.658437-3.842076-6.45799-8.346944-8.398659-13.5146023-1.940668-5.1676584-2.911003-10.7521998-2.911003-16.7536239v-3.2852478c0-6.8744507.993976-13.0882213 2.981926-18.6413117 1.987951-5.5530904 4.772306-10.3146311 8.353066-14.2846222 3.580759-3.969991 7.79687-7.0093307 12.64833-9.1180191 4.851461-2.1086883 10.122971-3.1630325 15.81453-3.1630325 6.247965 0 11.719579 1.0509669 16.414841 3.1529007 4.695261 2.1019338 8.596229 5.0597966 11.702903 8.8735886 3.106675 3.8137919 5.436786 8.3429336 6.990334 13.5874252s2.330322 11.0261815 2.330322 17.3450699v8.335968h-67.755386v-14.0262604h48.473236v-1.4919128c-.117361-3.5334778-.805481-6.8396225-2.064362-9.9184342-1.25888-3.0788116-3.195539-5.5689214-5.809974-7.4703293-2.614436-1.9014078-6.071714-2.8521118-10.371834-2.8521118-3.245565 0-6.126595.6912868-8.643089 2.0738602-2.516495 1.3825734-4.617796 3.3745346-6.303902 5.9758835-1.686107 2.6013489-2.967573 5.7198435-3.844399 9.355484s-1.315239 7.7242584-1.315239 12.2658539v3.2852478c0 3.8230794.531289 7.3747101 1.593865 10.6548919 1.062576 3.2801819 2.615913 6.1344045 4.660011 8.5626679s4.52492 4.3267164 7.442467 5.6953584c2.917546 1.368642 6.241 2.052963 9.97036 2.052963 4.719747 0 8.906939-.941627 12.561577-2.824882 3.654637-1.883255 6.830334-4.56587 9.527091-8.0478443l10.299012 9.9836583c-1.851593 2.744883-4.300965 5.374516-7.348114 7.8889-3.04715 2.514384-6.746325 4.557216-11.097527 6.128495-4.351201 1.571278-9.387779 2.356918-15.109733 2.356918z" fill="#d4666a" transform="translate(.042 .424)"/></svg>

<svg xmlns="http://www.w3.org/2000/svg" width="740" height="124" viewBox="0 0 740 124"><path fill="#D4666A" d="M37.8322754 94.6034851 61.2874756 3.08007812 73.6179199 3.08007812 72.2627869 26.6999207 47.1143036 121.095703 34.3000641 121.095703 37.8322754 94.6034851ZM20.2079468 3.08007812 39.2975922 93.8752594 40.9592133 121.095703 27.3027649 121.095703 0 3.08007812 20.2079468 3.08007812ZM100.329239 93.6156311 119.102264 3.08007812 139.331741 3.08007812 112.080902 121.095703 98.4535828 121.095703 100.329239 93.6156311ZM78.4166107 3.08007812 101.669174 94.8415833 105.112732 121.095703 92.2984924 121.095703 67.5046234 26.6403961 66.2178802 3.08007812 78.4166107 3.08007812ZM172.11021 33.3945312 172.11021 121.095703 152.50764 121.095703 152.50764 33.3945312 172.11021 33.3945312ZM151.194301 10.3699341C151.194301 7.40215047 152.180466 4.93188222 154.152797 2.95912933 156.125128.986376444 158.85819 0 162.351985 0 165.811163 0 168.544014.986376444 170.55054 2.95912933 172.557066 4.93188222 173.560329 7.40215047 173.560329 10.3699341 173.560329 13.2693278 172.557066 15.6969579 170.55054 17.6528244 168.544014 19.6086909 165.811163 20.5866241 162.351985 20.5866241 158.85819 20.5866241 156.125128 19.6086909 154.152797 17.6528244 152.180466 15.6969579 151.194301 13.2693278 151.194301 10.3699341ZM241.443323 97.326416C241.443323 95.4030558 240.960583 93.6483485 239.995104 92.062294 239.029624 90.4762395 237.17592 89.0223211 234.433992 87.7005386 231.692064 86.3787562 227.668248 85.1804555 222.362543 84.1056366 217.71794 83.1186269 213.46658 81.9028066 209.608461 80.4581757 205.750342 79.0135447 202.441876 77.2615814 199.683061 75.2022858 196.924247 73.1429901 194.790651 70.712827 193.282274 67.9117966 191.773897 65.1107661 191.019708 61.8603465 191.019708 58.1605377 191.019708 54.603419 191.799649 51.2400716 193.359529 48.0704956 194.91941 44.9009196 197.167411 42.0927124 200.103533 39.645874 203.039654 37.1990356 206.596351 35.2752533 210.773622 33.874527 214.950894 32.4738007 219.647211 31.7734375 224.862573 31.7734375 232.204777 31.7734375 238.500447 33.0012894 243.749582 35.4569931 248.998717 37.9126968 253.03161 41.2374166 255.848261 45.4311523 258.664911 49.6248881 260.073236 54.3433685 260.073236 59.5865936L240.551721 59.5865936C240.551721 57.2343191 239.964919 55.0439428 238.791315 53.0154648 237.617711 50.9869868 235.869969 49.3403524 233.54809 48.0755615 231.226211 46.8107707 228.320907 46.1783752 224.832178 46.1783752 221.505558 46.1783752 218.747377 46.7090302 216.557634 47.77034 214.367891 48.8316498 212.736877 50.2059911 211.664591 51.893364 210.592305 53.5807368 210.056162 55.4156545 210.056162 57.3981171 210.056162 58.8604787 210.339853 60.1670634 210.907236 61.3178711 211.474619 62.4686788 212.438199 63.5213343 213.797975 64.4758377 215.157752 65.4303411 217.012511 66.312233 219.362253 67.1215134 221.711995 67.9307938 224.66247 68.7153778 228.213678 69.4752655 234.924331 70.8979441 240.692512 72.6944453 245.518221 74.864769 250.34393 77.0350927 254.065269 79.8378118 256.682237 83.2729263 259.299206 86.7080409 260.607691 91.0539653 260.607691 96.3106995 260.607691 100.167552 259.775825 103.704829 258.112093 106.922531 256.448361 110.140233 254.052604 112.927121 250.924822 115.283195 247.797039 117.63927 244.06198 119.467222 239.719644 120.767052 235.377308 122.066882 230.500518 122.716797 225.089273 122.716797 217.123962 122.716797 210.386924 121.294118 204.87816 118.448761 199.369397 115.603404 195.202468 111.957631 192.377374 107.511444 189.552281 103.065257 188.139734 98.4400736 188.139734 93.6358948L207.026743 93.6358948C207.203206 97.2267863 208.198447 100.100428 210.012468 102.256821 211.826489 104.413213 214.102141 105.956629 216.839426 106.88707 219.57671 107.81751 222.415735 108.28273 225.3565 108.28273 228.868026 108.28273 231.80668 107.811811 234.172464 106.869972 236.538248 105.928134 238.341504 104.635691 239.582231 102.992645 240.822959 101.349599 241.443323 99.4608561 241.443323 97.326416ZM315.100395 122.716797C308.616864 122.716797 302.778816 121.646833 297.58625 119.506905 292.393684 117.366976 287.968183 114.375974 284.309746 110.533897 280.651309 106.691821 277.851756 102.186953 275.911087 97.0192947 273.970418 91.8516363 273.000084 86.2670949 273.000084 80.2656708L273.000084 76.980423C273.000084 70.1059723 273.994059 63.8922017 275.98201 58.3391113 277.96996 52.7860209 280.754316 48.0244802 284.335075 44.0544891 287.915835 40.0844981 292.131945 37.0451584 296.983406 34.93647 301.834867 32.8277817 307.106376 31.7734375 312.797935 31.7734375 319.045901 31.7734375 324.517514 32.8244044 329.212776 34.9263382 333.908038 37.028272 337.809006 39.9861348 340.91568 43.7999268 344.022354 47.6137187 346.352465 52.1428604 347.906013 57.387352 349.459562 62.6318436 350.236336 68.4135335 350.236336 74.7324219L350.236336 83.0683899 282.480949 83.0683899 282.480949 69.0421295 330.954185 69.0421295 330.954185 67.5502167C330.836825 64.0167389 330.148704 60.7105942 328.889824 57.6317825 327.630943 54.5529709 325.694285 52.0628611 323.079849 50.1614532 320.465413 48.2600454 317.008135 47.3093414 312.708015 47.3093414 309.462451 47.3093414 306.581421 48.0006282 304.064926 49.3832016 301.548431 50.765775 299.447131 52.7577362 297.761024 55.3590851 296.074918 57.960434 294.793452 61.0789286 293.916626 64.7145691 293.0398 68.3502096 292.601387 72.4388275 292.601387 76.980423L292.601387 80.2656708C292.601387 84.0887502 293.132675 87.6403809 294.195251 90.9205627 295.257828 94.2007446 296.811165 97.0549672 298.855263 99.4832306 300.89936 101.911494 303.380183 103.809947 306.297729 105.178589 309.215276 106.547231 312.538729 107.231552 316.268089 107.231552 320.987836 107.231552 325.175028 106.289925 328.829666 104.40667 332.484304 102.523415 335.660001 99.8408 338.356758 96.3588257L348.655769 106.342484C346.804176 109.087367 344.354805 111.717 341.307655 114.231384 338.260506 116.745768 334.56133 118.7886 330.210129 120.359879 325.858927 121.931157 320.822349 122.716797 315.100395 122.716797ZM383.754789 50.0917969 383.754789 121.095703 364.233274 121.095703 364.233274 33.3945312 382.842924 33.3945312 383.754789 50.0917969ZM410.615553 32.8486786 410.385053 50.9884644C409.202162 50.7782288 407.922806 50.6175969 406.546987 50.5065689 405.171168 50.3955409 403.810336 50.3400269 402.464491 50.3400269 399.105787 50.3400269 396.166921 50.815801 393.647894 51.7673492 391.128866 52.7188975 389.015323 54.0731862 387.307264 55.8302155 385.599205 57.5872447 384.287766 59.7088089 383.372946 62.1949081 382.458125 64.6810074 381.908262 67.458608 381.723356 70.52771L377.240019 70.8747253C377.240019 65.361318 377.786716 60.2462184 378.88011 55.5294266 379.973503 50.8126348 381.618027 46.6674474 383.81368 43.0938644 386.009334 39.5202815 388.758438 36.7401479 392.060995 34.7534637 395.363551 32.7667796 399.22357 31.7734375 403.64105 31.7734375 404.820565 31.7734375 406.09802 31.8800329 407.473417 32.0932236 408.848814 32.3064143 409.896192 32.5582326 410.615553 32.8486786ZM557.656325 58.8659668 557.656325 65.34021C557.656325 74.2612915 556.493908 82.2591095 554.169074 89.3336639 551.84424 96.4082184 548.522053 102.428851 544.202514 107.395561 539.882974 112.362272 534.734524 116.157489 528.757163 118.781212 522.779802 121.404935 516.128041 122.716797 508.801879 122.716797 501.593078 122.716797 494.994931 121.404935 489.007438 118.781212 483.019945 116.157489 477.835822 112.362272 473.45507 107.395561 469.074317 102.428851 465.687329 96.4082184 463.294105 89.3336639 460.90088 82.2591095 459.704268 74.2612915 459.704268 65.34021L459.704268 58.8659668C459.704268 49.9440409 460.892226 41.9496002 463.268142 34.8826447 465.644057 27.8156891 469.004027 21.7902018 473.348052 16.8061829 477.692077 11.8221639 482.857835 8.01829274 488.845328 5.3945694 494.832821 2.77084605 501.430968 1.45898438 508.63977 1.45898438 515.965931 1.45898438 522.622759 2.77084605 528.610251 5.3945694 534.597744 8.01829274 539.759704 11.8221639 544.096129 16.8061829 548.432555 21.7902018 551.776694 27.8156891 554.128547 34.8826447 556.480399 41.9496002 557.656325 49.9440409 557.656325 58.8659668ZM537.262206 65.34021 537.262206 58.7038574C537.262206 52.1156311 536.625589 46.2934138 535.352355 41.2372055 534.079121 36.1809972 532.213386 31.9347026 529.755149 28.4983215 527.296912 25.0619405 524.290501 22.4627024 520.735915 20.7006073 517.181329 18.9385122 513.149281 18.0574646 508.63977 18.0574646 504.173319 18.0574646 500.184752 18.9385122 496.674071 20.7006073 493.16339 22.4627024 490.180409 25.0619405 487.725127 28.4983215 485.269846 31.9347026 483.389968 36.1809972 482.085494 41.2372055 480.78102 46.2934138 480.128783 52.1156311 480.128783 58.7038574L480.128783 65.34021C480.128783 71.9427897 480.78102 77.7806269 482.085494 82.8537216 483.389968 87.9268163 485.292009 92.1999181 487.791617 95.673027 490.291226 99.146136 493.301225 101.768804 496.821616 103.541031 500.342007 105.313258 504.335428 106.199371 508.801879 106.199371 513.345163 106.199371 517.3808 105.313258 520.90879 103.541031 524.436779 101.768804 527.416172 99.146136 529.846969 95.673027 532.277765 92.1999181 534.121337 87.9268163 535.377685 82.8537216 536.634032 77.7806269 537.262206 71.9427897 537.262206 65.34021ZM594.025886 52.1181641 594.025886 121.095703 574.504371 121.095703 574.504371 33.3945312 592.888588 33.3945312 594.025886 52.1181641ZM590.578529 74.0409241 584.277794 73.9472046C584.312411 67.6907959 585.174461 61.9796066 586.863945 56.8136368 588.553428 51.6476669 590.935465 47.1932475 594.010055 43.4503784 597.084645 39.7075094 600.757014 36.8256353 605.02716 34.8047562 609.297307 32.7838771 614.040484 31.7734375 619.256691 31.7734375 623.480822 31.7734375 627.307068 32.3593953 630.735428 33.531311 634.163788 34.7032267 637.107297 36.5788829 639.565956 39.1582794 642.024615 41.737676 643.907448 45.0997569 645.214454 49.2445221 646.521461 53.3892873 647.174965 58.4615377 647.174965 64.4612732L647.174965 121.095703 627.543266 121.095703 627.543266 64.3295593C627.543266 60.1332906 626.937256 56.8123703 625.725235 54.3667984 624.513214 51.9212265 622.749219 50.1677856 620.43325 49.1064758 618.117281 48.045166 615.276568 47.5145111 611.91111 47.5145111 608.519478 47.5145111 605.500613 48.208753 602.854515 49.5972366 600.208417 50.9857203 597.979835 52.9040146 596.16877 55.3521194 594.357704 57.8002243 592.973231 60.620252 592.01535 63.8122025 591.057469 67.0041529 590.578529 70.4137268 590.578529 74.0409241ZM704.479729 122.716797C697.996198 122.716797 692.15815 121.646833 686.965584 119.506905 681.773018 117.366976 677.347516 114.375974 673.689079 110.533897 670.030642 106.691821 667.231089 102.186953 665.29042 97.0192947 663.349752 91.8516363 662.379417 86.2670949 662.379417 80.2656708L662.379417 76.980423C662.379417 70.1059723 663.373393 63.8922017 665.361343 58.3391113 667.349294 52.7860209 670.133649 48.0244802 673.714409 44.0544891 677.295168 40.0844981 681.511279 37.0451584 686.362739 34.93647 691.2142 32.8277817 696.48571 31.7734375 702.177269 31.7734375 708.425234 31.7734375 713.896848 32.8244044 718.59211 34.9263382 723.287371 37.028272 727.188339 39.9861348 730.295013 43.7999268 733.401688 47.6137187 735.731799 52.1428604 737.285347 57.387352 738.838895 62.6318436 739.615669 68.4135335 739.615669 74.7324219L739.615669 83.0683899 671.860283 83.0683899 671.860283 69.0421295 720.333519 69.0421295 720.333519 67.5502167C720.216158 64.0167389 719.528038 60.7105942 718.269157 57.6317825 717.010277 54.5529709 715.073618 52.0628611 712.459183 50.1614532 709.844747 48.2600454 706.387469 47.3093414 702.087349 47.3093414 698.841784 47.3093414 695.960754 48.0006282 693.44426 49.3832016 690.927765 50.765775 688.826464 52.7577362 687.140358 55.3590851 685.454251 57.960434 684.172785 61.0789286 683.295959 64.7145691 682.419133 68.3502096 681.98072 72.4388275 681.98072 76.980423L681.98072 80.2656708C681.98072 84.0887502 682.512009 87.6403809 683.574585 90.9205627 684.637161 94.2007446 686.190498 97.0549672 688.234596 99.4832306 690.278694 101.911494 692.759516 103.809947 695.677063 105.178589 698.594609 106.547231 701.918063 107.231552 705.647423 107.231552 710.36717 107.231552 714.554362 106.289925 718.209 104.40667 721.863637 102.523415 725.039334 99.8408 727.736091 96.3588257L738.035103 106.342484C736.18351 109.087367 733.734138 111.717 730.686989 114.231384 727.639839 116.745768 723.940664 118.7886 719.589462 120.359879 715.238261 121.931157 710.201683 122.716797 704.479729 122.716797Z" transform="translate(.042 .424)"/></svg>
